X:1
T:Grantham, 76.76 D
T:Grantham, 76.76 D
T:George Pierce Grantham, 1894
T:Public Domain Courtesy of the Cyber Hymnal™
C:George Pierce Grantham, 1894
Z:Public Domain
Z:Courtesy of the Cyber Hymnal™
%%score ( 1 2 ) ( 3 4 )
L:1/8
Q:1/4=115
M:4/4
K:G
V:1 treble 
V:2 treble 
V:3 bass 
V:4 bass 
V:1
 D2 | [DG]2 [DF]2 [DG]2 [FA]2 | [GB]4 [FA]2 F2 | [B,G]2 [EG]2 [DF]2 [DA]2 | [DG]6 D2 | %5
 [DG]2 [DF]2 G2 [FA]2 | [GB]4 [FA]2 F2 | [B,G]2 [^CG]2 [DF]2 [DA]2 | [DG]6 [GB]2 | %9
 [Gd]2 [Gd]2 B2 [Bd]2 | [Ac]4 A2 [Fc]2 | [GB]2 [GB]2 G2 [GB]2 | [FA]6 (Bc) | %13
 [Gd]2 [Gd]2 [GB]2 [=Fd]2 | [Ec]4 [EA]2 [Cc]2 | [DB]2 [DG]2 [DA]2 [DF]2 | [DG]6 |] %17
V:2
 D2 | x8 | x6 (DC) | x8 | x6 D2 | x4 (DE) x2 | x6 (DC) | x8 | x8 | x4 B2 x2 | x4 A2 x2 | x4 G2 x2 | %12
 x6 F2 | x8 | x8 | x8 | x6 |] %17
V:3
 (DC) | [G,,B,]2 [A,,C]2 [B,,D]2 [D,D]2 | [G,D]4 [D,D]2 [D,A,]2 | [E,G,]2 [C,C]2 [D,A,]2 [D,C]2 | %4
 [G,B,]6 ([G,B,][A,C]) | [B,D]2 [CD]2 [B,D]2 [A,C]2 | (B,2 D2) [D,D]2 [D,A,]2 | %7
 [E,G,]2 [A,,A,]2 [D,A,]2 [D,C]2 | [G,B,]6 [G,D]2 | [B,D]2 [B,D]2 [G,D]2 [^G,E]2 | %10
 [A,E]4 [F,D]2 [D,D]2 | [G,D]2 [B,,D]2 [E,D]2 [A,,^C]2 | [D,D]6 D2 | %13
 [B,,D]2 [G,,B,]2 [G,D]2 [B,,G,]2 | [C,G,]4 [C,A,]2 [A,,A,]2 | [D,G,]2 [D,B,]2 [D,C]2 [D,A,]2 | %16
 [G,,B,]6 |] %17
V:4
 D,2 | x8 | x8 | x8 | x8 | x8 | G,4 x4 | x8 | x8 | x8 | x8 | x8 | x6 (D,C,) | x8 | x8 | x8 | x6 |] %17

